X:1
T:Title
%%score { ( 1 3 ) | ( 2 4 ) }
L:1/8
Q:1/4=118
M:3/4
K:Eb
V:1 treble nm="Grand Piano"
V:3 treble 
V:2 bass 
V:4 bass 
V:1
 B2 B2 B2 | A4 G2 | [EG]4 [DF]2 | [DF]6 | [Ad]2 [Ad]2 [Ge]2 | B2- [EB]2 [B,FA]2 | [CA]6 | G6 | %8
w: Powell~G.~Fithian * *||||||||
 c2 c2 c2 | B4 B2 | A4 A2 | G4 G2 | F2 G2 B2 | c4 z2 | [DB]6- | [DB]6 | B4 [FB]2 | %17
w: |||||||||
 [=EB]2 [EA]2 [EG]2 | [CFA]4 [=B,FA]2 | [FA]2 z2 z2 | B,2- [B,FB]2 [Ge]2 | B3 c [CE=A]2 | [DB-]6 | %23
w: ||||||
[M:2/4] B4 |[M:1/4] [FB]2 |[M:3/4] [Ee]4 [Ge]2 | e2 d2 c2 | [GB]4 G2 | B2 A2 G2 | F2 B2 A2 | %30
w: |||||||
 G4 z2 | [G,E]6- | [G,E]6 |] %33
w: |||
V:2
 [E,G,E]2 [E,G,E]2 [E,G,E]2 | [E,CE]4 [E,B,E]2 | [B,,B,]4 [B,,B,]2 | [B,,B,]6 | %4
 [B,,B,]2 [B,,B,]2 [B,,B,]2 | F,2- [C,F,]2 D,2 | z6 | B,6 | [A,E]2 [A,E]2 [F,A,D]2 | %9
 [G,D]4 [E,G,C]2 | [F,C]4 [D,F,B,]2 | [E,B,]4 [=E,B,_D]2 | [F,B,D]4 [F,B,D]2 | [F,E]4 [F,=A,E]2 | %14
 B,6 | z6 | [E,G,E]4 [_D,G,]2 | [C,G,]2 [C,C]2 [C,C]2 | F,4 E,2 | D,2 B,,2 B,,2 | E,2 D,2 [C,C]2 | %21
 D3 E F,2 | z2 z2 F,2 |[M:2/4] G,4 |[M:1/4] [B,,A,]2 |[M:3/4] [E,G,]4 [E,_D]2 | %26
 [A,A]2- [A,DA]2 [A,EA]2 | [E,E]4 [E,B,E]2 | [=E,G,_D]2 [F,A,C]2 [G,B,C]2 | %29
 [A,C]2 [G,C=E]2 [F,CF]2 | z2 =A,2 B,,2 | E,6- | E,6 |] %33
V:3
 x6 | x6 | x6 | x6 | x6 | D2 z2 z2 | E6- | E6 | x6 | x6 | x6 | x6 | x6 | z2 G,2 d2 | x6 | A,6 | %16
 x6 | x6 | x6 | B,2- [B,EG]2 [B,DF]2 | [EG]2 z2 z2 | x6 | B,4 z2 |[M:2/4] E4 |[M:1/4] x2 | %25
[M:3/4] x6 | x6 | x6 | x6 | x6 | [B,E]2 C2 [A,DF]2 | x6 | x6 |] %33
V:4
 x6 | x6 | x6 | x6 | x6 | B,,2 z2 z2 | E,6- | E,6 | x6 | x6 | x6 | x6 | x6 | B,2 z2 z2 | B,,6- | %15
 B,,6 | x6 | x6 | x6 | x6 | x6 | [F,F]4 z2 | B,,6- |[M:2/4] B,,4 |[M:1/4] x2 |[M:3/4] x6 | %26
 C2 z2 z2 | x6 | x6 | x6 | B,,4 z2 | x6 | x6 |] %33

